/* XPM */
static char * close_active_xpm[] = {
"20 24 37 1",
" 	c None",
".	c #9B744D",
"+	c #AA8C6C",
"@	c #AE967C",
"#	c #AA8A69",
"$	c #AC9174",
"%	c #A7845F",
"&	c #AC9072",
"*	c #AC8F71",
"=	c #A07950",
"-	c #A07B55",
";	c #A78969",
">	c #A38565",
",	c #AE9881",
"'	c #AC8F71",
")	c #FFFFFF",
"!	c #AE9E8C",
"~	c #A07D59",
"{	c #A78867",
"]	c #AB8E70",
"^	c #A07C58",
"/	c #A07D59",
"(	c #AB8E6F",
"_	c #A78767",
":	c #AB8D6E",
"<	c #A68562",
"[	c #A98967",
"}	c #A68462",
"|	c #A98867",
"1	c #A58461",
"2	c #A98865",
"3	c #A58360",
"4	c #AC947B",
"5	c #A88764",
"6	c #A88663",
"7	c #A5815B",
"8	c #A78562",
"                    ",
"                    ",
"                    ",
"   ..............   ",
"  .+@@@@@@@@@@@@+.  ",
" .#$$$$$$$$$$$$$$%. ",
" .$&&&&&&&&&&&&&&#. ",
" .$***=-;**;->,**#. ",
" .$''=)!~{{~!)>''#. ",
" .$]]^!)!//!)!^]]#. ",
" .$((_~!)!!)!~_((#. ",
" .$:::_/!))!/_:::#. ",
" .$###</!))!/<####. ",
" .$[[}~!)!!)!~}[[#. ",
" .$[[^!)!//!)!^[[#. ",
" .$||=)!~11~!)>||#. ",
" .$222=-3223->422#. ",
" .$55555555555555#. ",
" .#66666666666666%. ",
"  .78888888888887.  ",
"   ..............   ",
"                    ",
"                    ",
"                    "};
