/* XPM */
static char * close_inactive_xpm[] = {
"20 24 256 2",
"  	c #AB9E8A",
". 	c #FAF4EB",
"+ 	c #FFFFFF",
"@ 	c #FEFEFE",
"# 	c #DAD3C7",
"$ 	c #ADA18D",
"% 	c #A89B86",
"& 	c #F0EAE0",
"* 	c #FDFDFD",
"= 	c #E7E1D7",
"- 	c #DFD8CC",
"; 	c #E6EEED",
"> 	c #6C6964",
", 	c #EBE4D9",
"' 	c #EBF3F2",
") 	c #7F7B76",
"! 	c #DFD8CE",
"~ 	c #7C7C7C",
"{ 	c #EDF5F4",
"] 	c #F7F1E8",
"^ 	c #7D7A74",
"/ 	c #F1F1F1",
"( 	c #F5EFE6",
"_ 	c #EEE8DE",
": 	c #DBD4C8",
"< 	c #F2F2F2",
"[ 	c #E4DDD1",
"} 	c #E4DDD3",
"| 	c #E6DFD5",
"1 	c #EFE9E1",
"2 	c #EDEDED",
"3 	c #E5DFD5",
"4 	c #DCD5C9",
"5 	c #EAE5DC",
"6 	c #E7EFEE",
"7 	c #E5DED4",
"8 	c #E1DBD2",
"9 	c #DFD9D0",
"0 	c #F5EFE5",
"a 	c #E3DDD4",
"b 	c #E3DCD2",
"c 	c #F7F7F7",
"d 	c #E4DED5",
"e 	c #EDE7DD",
"f 	c #D7CFC3",
"g 	c #D5CDC1",
"h 	c #E6E0D6",
"i 	c #726F6A",
"j 	c #E5DED2",
"k 	c #F9F9F9",
"l 	c #E6DFD5",
"m 	c #D9D9D9",
"n 	c #E0D9CF",
"o 	c #E1DAD0",
"p 	c #ECE6DE",
"q 	c #E2DBD1",
"r 	c #E2EAE9",
"s 	c #7E7B75",
"t 	c #777F7E",
"u 	c #929292",
"v 	c #7B7B7B",
"w 	c #CAD2D1",
"x 	c #B3AFA8",
"y 	c #8F8F8F",
"z 	c #D1CCC4",
"A 	c #B9B9B9",
"B 	c #424242",
"C 	c #434343",
"D 	c #444444",
"E 	c #454545",
"F 	c #464646",
"G 	c #474747",
"H 	c #484848",
"I 	c #494949",
"J 	c #4A4A4A",
"K 	c #4B4B4B",
"L 	c #4C4C4C",
"M 	c #4D4D4D",
"N 	c #4E4E4E",
"O 	c #4F4F4F",
"P 	c #505050",
"Q 	c #515151",
"R 	c #525252",
"S 	c #535353",
"T 	c #545454",
"U 	c #555555",
"V 	c #565656",
"W 	c #575757",
"X 	c #585858",
"Y 	c #595959",
"Z 	c #5A5A5A",
"` 	c #5B5B5B",
" .	c #5C5C5C",
"..	c #5D5D5D",
"+.	c #5E5E5E",
"@.	c #5F5F5F",
"#.	c #606060",
"$.	c #616161",
"%.	c #626262",
"&.	c #636363",
"*.	c #646464",
"=.	c #656565",
"-.	c #666666",
";.	c #676767",
">.	c #686868",
",.	c #696969",
"'.	c #6A6A6A",
").	c #6B6B6B",
"!.	c #6C6C6C",
"~.	c #6D6D6D",
"{.	c #6E6E6E",
"].	c #6F6F6F",
"^.	c #707070",
"/.	c #717171",
"(.	c #727272",
"_.	c #737373",
":.	c #747474",
"<.	c #757575",
"[.	c #767676",
"}.	c #777777",
"|.	c #787878",
"1.	c #797979",
"2.	c #7A7A7A",
"3.	c #7B7B7B",
"4.	c #7C7C7C",
"5.	c #7D7D7D",
"6.	c #7E7E7E",
"7.	c #7F7F7F",
"8.	c #808080",
"9.	c #818181",
"0.	c #828282",
"a.	c #838383",
"b.	c #848484",
"c.	c #858585",
"d.	c #868686",
"e.	c #878787",
"f.	c #888888",
"g.	c #898989",
"h.	c #8A8A8A",
"i.	c #8B8B8B",
"j.	c #8C8C8C",
"k.	c #8D8D8D",
"l.	c #8E8E8E",
"m.	c #8F8F8F",
"n.	c #909090",
"o.	c #919191",
"p.	c #929292",
"q.	c #939393",
"r.	c #949494",
"s.	c #959595",
"t.	c #969696",
"u.	c #979797",
"v.	c #989898",
"w.	c #999999",
"x.	c #9A9A9A",
"y.	c #9B9B9B",
"z.	c #9C9C9C",
"A.	c #9D9D9D",
"B.	c #9E9E9E",
"C.	c #9F9F9F",
"D.	c #A0A0A0",
"E.	c #A1A1A1",
"F.	c #A2A2A2",
"G.	c #A3A3A3",
"H.	c #A4A4A4",
"I.	c #A5A5A5",
"J.	c #A6A6A6",
"K.	c #A7A7A7",
"L.	c #A8A8A8",
"M.	c #A9A9A9",
"N.	c #AAAAAA",
"O.	c #ABABAB",
"P.	c #ACACAC",
"Q.	c #ADADAD",
"R.	c #AEAEAE",
"S.	c #AFAFAF",
"T.	c #B0B0B0",
"U.	c #B1B1B1",
"V.	c #B2B2B2",
"W.	c #B3B3B3",
"X.	c #B4B4B4",
"Y.	c #B5B5B5",
"Z.	c #B6B6B6",
"`.	c #B7B7B7",
" +	c #B8B8B8",
".+	c #B9B9B9",
"++	c #BABABA",
"@+	c #BBBBBB",
"#+	c #BCBCBC",
"$+	c #BDBDBD",
"%+	c #BEBEBE",
"&+	c #BFBFBF",
"*+	c #C0C0C0",
"=+	c #C1C1C1",
"-+	c #C2C2C2",
";+	c #C3C3C3",
">+	c #C4C4C4",
",+	c #C5C5C5",
"'+	c #C6C6C6",
")+	c #C7C7C7",
"!+	c #C8C8C8",
"~+	c #C9C9C9",
"{+	c #CACACA",
"]+	c #CBCBCB",
"^+	c #CCCCCC",
"/+	c #CDCDCD",
"(+	c #CECECE",
"_+	c #CFCFCF",
":+	c #D0D0D0",
"<+	c #D1D1D1",
"[+	c #D2D2D2",
"}+	c #D3D3D3",
"|+	c #D4D4D4",
"1+	c #D5D5D5",
"2+	c #D6D6D6",
"3+	c #D7D7D7",
"4+	c #D8D8D8",
"5+	c #D9D9D9",
"6+	c #DADADA",
"7+	c #DBDBDB",
"8+	c #DCDCDC",
"9+	c #DDDDDD",
"0+	c #DEDEDE",
"a+	c #DFDFDF",
"b+	c #E0E0E0",
"c+	c #E1E1E1",
"d+	c #E2E2E2",
"e+	c #E3E3E3",
"f+	c #E4E4E4",
"g+	c #E5E5E5",
"h+	c #E6E6E6",
"i+	c #E7E7E7",
"j+	c #E8E8E8",
"k+	c #E9E9E9",
"l+	c #EAEAEA",
"m+	c #EBEBEB",
"n+	c #ECECEC",
"o+	c #EDEDED",
"p+	c #EEEEEE",
"q+	c #EFEFEF",
"r+	c #F0F0F0",
"s+	c #F1F1F1",
"t+	c #F2F2F2",
"u+	c #F3F3F3",
"v+	c #F4F4F4",
"w+	c #F5F5F5",
"x+	c #F6F6F6",
"y+	c #F7F7F7",
"z+	c #F8F8F8",
"A+	c #F9F9F9",
"B+	c #FAFAFA",
"C+	c #FBFBFB",
"D+	c #FCFCFC",
"E+	c #FDFDFD",
"F+	c #FEFEFE",
"G+	c #FFFFFF",
"% % % % % % % % % % % % % % % % % % % % ",
". . . . . . . . . . . . . . . . . . . . ",
"_ _ [ - - - - - - - - - - - - - - [ _ _ ",
"e ! f                             f ! e ",
"! g   0 + + + + + + + + + + + + 0   g ! ",
"!   & + + + + + + + + + + + + + + |   ! ",
"!   + @ @ @ @ @ @ @ @ @ @ @ @ @ @ .   ! ",
"n   + @ @ @ @ k @ @ @ @ k m A @ @ .   n ",
"9   + @ @ @ u ) < @ @ < ) i m @ @ .   9 ",
"o   + @ @ c ) > ) < < ) > ) c @ @ .   o ",
"q   + * * * / ) > s ~ > ) / * * * .   q ",
"8   + * * * * / s > > ~ / * * * * .   8 ",
"b   + . . . . 2 ^ > > ^ 2 . . . . .   b ",
"}   + ] ] ] p ~ > t v > ~ p ] ] ] .   } ",
"a   + ( ( 1 ~ > ~ 5 5 ~ > ~ 1 ( ( .   a ",
"d   + { { { y ^ r { { r ^ i z { { .   d ",
"l   + ' ' ' ' 6 ' ' ' ' 6 w x ' ' .   l ",
"3   + & & & & & & & & & & & & & & .   3 ",
"h   & ; ; ; ; ; ; ; ; ; ; ; ; ; ; |   h ",
"j |   # , , , , , , , , , , , , #   | j ",
"4 [ }                             } [ 4 ",
": : 7 = = = = = = = = = = = = = = 7 : : ",
"# # # # # # # # # # # # # # # # # # # # ",
"$ $ $ $ $ $ $ $ $ $ $ $ $ $ $ $ $ $ $ $ "};
