/* XPM */
static char * close_pressed_xpm[] = {
"20 24 29 1",
" 	c None",
".	c #98744F",
"+	c #A7845F",
"@	c #A5815B",
"#	c #A88764",
"$	c #A88764",
"%	c #A88663",
"&	c #A07950",
"*	c #A07B55",
"=	c #A5825F",
"-	c #A38565",
";	c #AC9379",
">	c #A88663",
",	c #FFFFFF",
"'	c #AE9E8C",
")	c #A07D59",
"!	c #A5825E",
"~	c #A07C58",
"{	c #A88664",
"]	c #A5825E",
"^	c #A88662",
"/	c #A78562",
"(	c #A4815D",
"_	c #A78562",
":	c #A4825D",
"<	c #A78460",
"[	c #A4815D",
"}	c #AB937A",
"|	c #A78460",
"                    ",
"                    ",
"                    ",
"   ..............   ",
"  .++++++++++++++.  ",
" .@###############. ",
" .@$$$$$$$$$$$$$$$. ",
" .@%%%&*=%%=*-;%%%. ",
" .@>>&,')!!)',->>>. ",
" .@>>~','))','~>>>. ",
" .@{{])','',')]{{{. ",
" .@^^^])',,')]^^^^. ",
" .@///()',,')(////. ",
" .@//()','',')(///. ",
" .@__~','))','~___. ",
" .@__&,')::)',-___. ",
" .@<<<&*[<<[*-}<<<. ",
" .@|||||||||||||||. ",
" .@+++++++++++++++. ",
"  .++++++++++++++.  ",
"   ..............   ",
"                    ",
"                    ",
"                    "};
