/* XPM */
static char * maximize_pressed_xpm[] = {
"20 24 16 1",
" 	c None",
".	c #98744F",
"+	c #A7845F",
"@	c #A5815B",
"#	c #A88764",
"$	c #A88764",
"%	c #A88663",
"&	c #A07950",
"*	c #A88663",
"=	c #FFFFFF",
"-	c #A88664",
";	c #A88662",
">	c #A78562",
",	c #A78562",
"'	c #A78460",
")	c #A78460",
"                    ",
"                    ",
"                    ",
"   ..............   ",
"  .++++++++++++++.  ",
" .@###############. ",
" .@$$$$$$$$$$$$$$$. ",
" .@%%&&&&&&&&&&%%%. ",
" .@**&========&***. ",
" .@**&========&***. ",
" .@--&=&&&&&&=&---. ",
" .@;;&=&;;;;&=&;;;. ",
" .@>>&=&>>>>&=&>>>. ",
" .@>>&=&>>>>&=&>>>. ",
" .@,,&=&&&&&&=&,,,. ",
" .@,,&========&,,,. ",
" .@''&&&&&&&&&&'''. ",
" .@))))))))))))))). ",
" .@+++++++++++++++. ",
"  .++++++++++++++.  ",
"   ..............   ",
"                    ",
"                    ",
"                    "};
