/* XPM */
static char * maximize_active_xpm[] = {
"20 24 22 1",
" 	c None",
".	c #9B744D",
"+	c #AA8C6C",
"@	c #AE967C",
"#	c #AA8A69",
"$	c #AC9174",
"%	c #A7845F",
"&	c #AC9072",
"*	c #AC8F71",
"=	c #A07950",
"-	c #AC8F71",
";	c #FFFFFF",
">	c #AB8E70",
",	c #AB8E6F",
"'	c #AB8D6E",
")	c #A98967",
"!	c #A98867",
"~	c #A98865",
"{	c #A88764",
"]	c #A88663",
"^	c #A5815B",
"/	c #A78562",
"                    ",
"                    ",
"                    ",
"   ..............   ",
"  .+@@@@@@@@@@@@+.  ",
" .#$$$$$$$$$$$$$$%. ",
" .$&&&&&&&&&&&&&&#. ",
" .$**==========**#. ",
" .$--=;;;;;;;;=--#. ",
" .$>>=;;;;;;;;=>>#. ",
" .$,,=;======;=,,#. ",
" .$''=;=''''=;=''#. ",
" .$##=;=####=;=###. ",
" .$))=;=))))=;=))#. ",
" .$))=;======;=))#. ",
" .$!!=;;;;;;;;=!!#. ",
" .$~~==========~~#. ",
" .${{{{{{{{{{{{{{#. ",
" .#]]]]]]]]]]]]]]%. ",
"  .^////////////^.  ",
"   ..............   ",
"                    ",
"                    ",
"                    "};
