/* XPM */
static char * maximize_toggled_inactive_xpm[] = {
"20 24 257 2",
"  	c None",
". 	c #FFFFFF",
"+ 	c #FFFFCC",
"@ 	c #FFFF99",
"# 	c #FFFF66",
"$ 	c #FFFF33",
"% 	c #FFFF00",
"& 	c #FFCCFF",
"* 	c #FFCCCC",
"= 	c #FFCC99",
"- 	c #FFCC66",
"; 	c #FFCC33",
"> 	c #FFCC00",
", 	c #FF99FF",
"' 	c #FF99CC",
") 	c #FF9999",
"! 	c #FF9966",
"~ 	c #FF9933",
"{ 	c #FF9900",
"] 	c #FF66FF",
"^ 	c #FF66CC",
"/ 	c #FF6699",
"( 	c #FF6666",
"_ 	c #FF6633",
": 	c #FF6600",
"< 	c #FF33FF",
"[ 	c #FF33CC",
"} 	c #FF3399",
"| 	c #FF3366",
"1 	c #FF3333",
"2 	c #FF3300",
"3 	c #FF00FF",
"4 	c #FF00CC",
"5 	c #FF0099",
"6 	c #FF0066",
"7 	c #FF0033",
"8 	c #FF0000",
"9 	c #BFAF97",
"0 	c #CCFFCC",
"a 	c #CCFF99",
"b 	c #CCFF66",
"c 	c #CCFF33",
"d 	c #CCFF00",
"e 	c #BFB197",
"f 	c #CCCCCC",
"g 	c #CCCC99",
"h 	c #CCCC66",
"i 	c #CCCC33",
"j 	c #CCCC00",
"k 	c #CC99FF",
"l 	c #CC99CC",
"m 	c #CC9999",
"n 	c #CC9966",
"o 	c #CC9933",
"p 	c #CC9900",
"q 	c #CC66FF",
"r 	c #CC66CC",
"s 	c #CC6699",
"t 	c #CC6666",
"u 	c #CC6633",
"v 	c #CC6600",
"w 	c #CC33FF",
"x 	c #CC33CC",
"y 	c #CC3399",
"z 	c #CC3366",
"A 	c #CC3333",
"B 	c #CC3300",
"C 	c #CC00FF",
"D 	c #CC00CC",
"E 	c #CC0099",
"F 	c #CC0066",
"G 	c #CC0033",
"H 	c #CC0000",
"I 	c #BFA57E",
"J 	c #99FFCC",
"K 	c #99FF99",
"L 	c #99FF66",
"M 	c #99FF33",
"N 	c #99FF00",
"O 	c #BFA67E",
"P 	c #B5A389",
"Q 	c #99CC99",
"R 	c #99CC66",
"S 	c #99CC33",
"T 	c #99CC00",
"U 	c #BFA87E",
"V 	c #B5A589",
"W 	c #999999",
"X 	c #999966",
"Y 	c #999933",
"Z 	c #999900",
"` 	c #9966FF",
" .	c #9966CC",
"..	c #996699",
"+.	c #996666",
"@.	c #996633",
"#.	c #996600",
"$.	c #9933FF",
"%.	c #9933CC",
"&.	c #993399",
"*.	c #993366",
"=.	c #993333",
"-.	c #993300",
";.	c #9900FF",
">.	c #9900CC",
",.	c #990099",
"'.	c #990066",
").	c #990033",
"!.	c #990000",
"~.	c #FFE0AD",
"{.	c #66FFCC",
"].	c #66FF99",
"^.	c #66FF66",
"/.	c #66FF33",
"(.	c #66FF00",
"_.	c #FFE0AD",
":.	c #CCB793",
"<.	c #66CC99",
"[.	c #66CC66",
"}.	c #66CC33",
"|.	c #66CC00",
"1.	c #FFE0AD",
"2.	c #CCB793",
"3.	c #998D7A",
"4.	c #669966",
"5.	c #669933",
"6.	c #669900",
"7.	c #FFE0AD",
"8.	c #CCB793",
"9.	c #998D7A",
"0.	c #666666",
"a.	c #666633",
"b.	c #666600",
"c.	c #6633FF",
"d.	c #6633CC",
"e.	c #663399",
"f.	c #663366",
"g.	c #663333",
"h.	c #663300",
"i.	c #6600FF",
"j.	c #6600CC",
"k.	c #660099",
"l.	c #660066",
"m.	c #660033",
"n.	c #660000",
"o.	c #FFD896",
"p.	c #33FFCC",
"q.	c #33FF99",
"r.	c #33FF66",
"s.	c #33FF33",
"t.	c #33FF00",
"u.	c #FFD896",
"v.	c #CCAE7C",
"w.	c #33CC99",
"x.	c #33CC66",
"y.	c #33CC33",
"z.	c #33CC00",
"A.	c #FFD896",
"B.	c #CCAE7C",
"C.	c #998563",
"D.	c #339966",
"E.	c #339933",
"F.	c #339900",
"G.	c #FFD896",
"H.	c #CCAE7C",
"I.	c #998563",
"J.	c #665B49",
"K.	c #336633",
"L.	c #336600",
"M.	c #FFD896",
"N.	c #CCAE7C",
"O.	c #998563",
"P.	c #665B49",
"Q.	c #333333",
"R.	c #333300",
"S.	c #3300FF",
"T.	c #3300CC",
"U.	c #330099",
"V.	c #330066",
"W.	c #330033",
"X.	c #330000",
"Y.	c #FFCF7F",
"Z.	c #00FFCC",
"`.	c #00FF99",
" +	c #00FF66",
".+	c #00FF33",
"++	c #00FF00",
"@+	c #FFCF7F",
"#+	c #CCA666",
"$+	c #00CC99",
"%+	c #00CC66",
"&+	c #00CC33",
"*+	c #00CC00",
"=+	c #FFCF7F",
"-+	c #CCA666",
";+	c #997C4C",
">+	c #009966",
",+	c #009933",
"'+	c #009900",
")+	c #FFCF7F",
"!+	c #CCA666",
"~+	c #997C4C",
"{+	c #665333",
"]+	c #006633",
"^+	c #006600",
"/+	c #FFCF7F",
"(+	c #CCA666",
"_+	c #997C4C",
":+	c #665333",
"<+	c #332919",
"[+	c #003300",
"}+	c #FFCF7F",
"|+	c #CCA666",
"1+	c #997C4C",
"2+	c #665333",
"3+	c #332919",
"4+	c #000000",
"5+	c #FEFEFE",
"6+	c #FDFDFD",
"7+	c #FAF4EB",
"8+	c #EDF5F4",
"9+	c #EBF3F2",
"0+	c #F0EAE0",
"a+	c #E6EEED",
"b+	c #EBE4D9",
"c+	c #E7E1D7",
"d+	c #DFD8CC",
"e+	c #DAD3C7",
"f+	c #A79F92",
"g+	c #9B9387",
"h+	c #8F877B",
"i+	c #6C6964",
"j+	c #E6DFD5",
"k+	c #D7CFC3",
"l+	c #DCD5C9",
"m+	c #DBD4C8",
"n+	c #E5DED2",
"o+	c #E4DDD1",
"p+	c #E3DDD4",
"q+	c #E1DBD2",
"r+	c #DFD9D0",
"s+	c #F5EFE5",
"t+	c #EEE8DE",
"u+	c #EDE7DD",
"v+	c #E6E0D6",
"w+	c #E5DFD5",
"x+	c #E4DED5",
"y+	c #D5CDC1",
"z+	c #E6DFD5",
"A+	c #E5DED4",
"B+	c #E4DDD3",
"C+	c #E3DCD2",
"D+	c #E2DBD1",
"E+	c #DFD8CE",
"F+	c #F7F1E8",
"G+	c #F5EFE6",
"H+	c #FFFFFF",
"h+h+h+h+h+h+h+h+h+h+h+h+h+h+h+h+h+h+h+h+",
"7+7+7+7+7+7+7+7+7+7+7+7+7+7+7+7+7+7+7+7+",
"t+t+o+d+d+d+d+d+d+d+d+d+d+d+d+d+d+o+t+t+",
"u+E+k+g+g+g+g+g+g+g+g+g+g+g+g+g+g+k+E+u+",
"E+y+g+s+. . . . . . . . . . . . s+g+y+E+",
"E+g+0+. . . . . . . . . . . . . . j+g+E+",
"E+g+. 5+5+5+5+5+5+5+5+5+5+5+5+5+5+7+g+E+",
"E+g+. 5+5+5+5+5+5+5+5+5+5+5+5+5+5+7+g+E+",
"r+g+. 5+5+5+5+5+5+5+5+5+5+5+5+5+5+7+g+r+",
"D+g+. 5+5+5+5+i+i+i+i+i+i+5+5+5+5+7+g+D+",
"D+g+. 6+6+6+6+i+i+i+i+i+i+6+6+6+6+7+g+D+",
"q+g+. 6+6+6+6+i+6+6+6+6+i+6+6+6+6+7+g+q+",
"C+g+. 7+7+7+7+i+7+7+7+7+i+7+7+7+7+7+g+C+",
"B+g+. F+F+F+F+i+F+F+F+F+i+F+F+F+F+7+g+B+",
"p+g+. G+G+G+G+i+i+i+i+i+i+G+G+G+G+7+g+p+",
"x+g+. 8+8+8+8+8+8+8+8+8+8+8+8+8+8+7+g+x+",
"z+g+. 9+9+9+9+9+9+9+9+9+9+9+9+9+9+7+g+z+",
"w+g+. 0+0+0+0+0+0+0+0+0+0+0+0+0+0+7+g+w+",
"v+g+0+a+a+a+a+a+a+a+a+a+a+a+a+a+a+j+g+v+",
"n+j+g+e+b+b+b+b+b+b+b+b+b+b+b+b+e+g+j+n+",
"l+o+B+g+g+g+g+g+g+g+g+g+g+g+g+g+g+B+o+l+",
"m+m+A+c+c+c+c+c+c+c+c+c+c+c+c+c+c+A+m+m+",
"e+e+e+e+e+e+e+e+e+e+e+e+e+e+e+e+e+e+e+e+",
"f+f+f+f+f+f+f+f+f+f+f+f+f+f+f+f+f+f+f+f+"};
