/* XPM */
static char * menu_pressed_xpm[] = {
"20 24 22 1",
" 	c #896947",
".	c #A87642",
"+	c #A57039",
"@	c #A5713A",
"#	c #A5713A",
"$	c #A47039",
"%	c #A46F38",
"&	c #A46F38",
"*	c #A46F37",
"=	c #A46E36",
"-	c #A36E37",
";	c #A36D35",
">	c #A26D35",
",	c #A16D36",
"'	c #A16C35",
")	c #A16C35",
"!	c #A06C36",
"~	c #A06C37",
"{	c #A06C36",
"]	c #9F6C36",
"^	c #9F6C37",
"/	c #916A41",
"                    ",
"....................",
"+++@++++++++++++++@@",
"++++++++++++++++++++",
"+++#++++++++++++++##",
"$$$$$$$$$$$$$$$$$$$$",
"$$$$$$$$$$$$$$$$$$$$",
"%%%%%%%%%%%%%%%%%%%%",
"&&&&&&&&&&&&&&&&&&&&",
"********************",
"====================",
"--------------------",
";;;;;;;;;;;;;;;;;;;;",
">>>>>>>>>>>>>>>>>>>>",
">>>>>>>>>>>>>>>>>>>>",
",,,,,,,,,,,,,,,,,,,,",
"''''''''''''''''''''",
"))))))))))))))))))))",
"!!!!!!!!!!!!!!!!!!!!",
"~~~~~~~~~~~~~~~~~~~~",
"{{{{{{{{{{{{{{{{{{{{",
"]]]]]]]]]]]]]]]]]]]]",
"^^^^^^^^^^^^^^^^^^^^",
"////////////////////"};
