/* XPM */
static char *title_4_inactive[] = {
/* columns rows colors chars-per-pixel */
"5 43 31 1 ",
"  c #9B9387",
". c #B9B2A7",
"X c #E0DAD0",
"o c #F1EBE1",
"O c #EFE9DF",
"+ c #EDE7DD",
"@ c #ECE6DC",
"# c #EBE5DB",
"$ c #EAE4DA",
"% c #E9E3D9",
"& c #E8E2D8",
"* c #E7E1D7",
"= c #E6E0D6",
"- c #E5DFD5",
"; c #E5DED4",
": c #E4DED3",
"> c #E3DDD1",
", c #E3DCD0",
"< c #E2DBCF",
"1 c #E1DACE",
"2 c #E0D9CD",
"3 c #DFD8CC",
"4 c #DED7CB",
"5 c #DDD6CA",
"6 c #DCD5C9",
"7 c #DBD4C8",
"8 c #D9D2C6",
"9 c #CEC7BB",
"0 c #BBB3A7",
"q c #ACA497",
"w c white",
/* pixels */
"     ",
".....",
"XXXXX",
"ooooo",
"OOOOO",
"+++++",
"@@@@@",
"@@@@@",
"#####",
"#####",
"$$$$$",
"$$$$$",
"%%%%%",
"&&&&&",
"&&&&&",
"*****",
"*****",
"=====",
"=====",
"-----",
";;;;;",
":::::",
">>>>>",
",,,,,",
"<<<<<",
"<<<<<",
"11111",
"11111",
"22222",
"22222",
"33333",
"44444",
"44444",
"55555",
"55555",
"66666",
"66666",
"77777",
"77777",
"88888",
"99999",
"00000",
"qqqqq"
};
