/* XPM */
static char *title_2_active[] = {
/* columns rows colors chars-per-pixel */
"5 43 24 1 ",
"  c #8C6A46",
". c #956E44",
"X c #A07242",
"o c #A5733E",
"O c #A5713B",
"+ c #A57039",
"@ c #A47039",
"# c #A46F38",
"$ c #A46F37",
"% c #A46E37",
"& c #A36E36",
"* c #A36D36",
"= c #A36D35",
"- c #A26D35",
"; c #A16D35",
": c #A16C35",
"> c #A06C35",
", c #A06C36",
"< c #9F6C36",
"1 c #9E6B36",
"2 c #9B6B39",
"3 c #966A3D",
"4 c #926A3F",
"5 c white",
/* pixels */
"     ",
".....",
"XXXXX",
"ooooo",
"OOOOO",
"+++++",
"+++++",
"@@@@@",
"@@@@@",
"@@@@@",
"@@@@@",
"#####",
"#####",
"#####",
"$$$$$",
"$$$$$",
"%%%%%",
"&&&&&",
"&&&&&",
"&&&&&",
"*****",
"=====",
"-----",
"-----",
"-----",
";;;;;",
":::::",
":::::",
":::::",
":::::",
">>>>>",
">>>>>",
">>>>>",
",,,,,",
",,,,,",
"<<<<<",
"<<<<<",
"<<<<<",
"<<<<<",
"11111",
"22222",
"33333",
"44444"
};
