/* XPM */
static char *top_right_active[] = {
/* columns rows colors chars-per-pixel */
"5 43 86 1 ",
"  c black",
". c #896947",
"X c #896947",
"o c #896947",
"O c #896947",
"+ c #896946",
"@ c #896946",
"# c #896946",
"$ c #8D6A44",
"% c #8D6A44",
"& c #8B6945",
"* c #896947",
"= c #966C40",
"- c #956C40",
"; c #8D6A44",
": c #896946",
"> c #9D6E3C",
", c #906A42",
"< c #8B6945",
"1 c #896947",
"2 c None",
"3 c #956B3F",
"4 c #8C6944",
"5 c #896946",
"6 c #986C3D",
"7 c #8E6A44",
"8 c #8B6946",
"9 c #9A6C3C",
"0 c #916B43",
"q c #8D6A45",
"w c #946B41",
"e c #8D6A45",
"r c #966C3F",
"t c #8C6945",
"y c #976C3E",
"u c #8C6945",
"i c #986C3D",
"p c #8C6945",
"a c #A06E3B",
"s c #A46F39",
"d c #A57039",
"f c #A36F39",
"g c #A47039",
"h c #9D6D3B",
"j c #A06E3A",
"k c #A46F38",
"l c #A16F39",
"z c #A26F39",
"x c #A26E39",
"c c #986C3D",
"v c #8C6945",
"b c #A26E38",
"n c #A46F37",
"m c #A46E37",
"M c #986B3D",
"N c #A36E36",
"B c #A26E37",
"V c #A26D37",
"C c #A16D37",
"Z c #A36D36",
"A c #A36D35",
"S c #A26D35",
"D c #A16C36",
"F c #976B3D",
"G c #A06C36",
"H c #A16D35",
"J c #A16C35",
"K c #9F6C36",
"L c #A06C35",
"P c #9E6C37",
"I c #9E6C36",
"U c #9D6C38",
"Y c #966B3D",
"T c #8A6945",
"R c #9B6C3A",
"E c #9A6C3B",
"W c #936A40",
"Q c #816546",
"! c #956C40",
"~ c #946C41",
"^ c #8C6944",
"/ c #705E4A",
"( c #906C45",
") c #866747",
"_ c #63584C",
"` c white",
/* pixels */
"XoO  ",
"+@#. ",
"$%&* ",
"=-;:.",
"a>,<1",
"s2345",
"df678",
"gf90q",
"gfhwe",
"gfjrt",
"kflyu",
"kkzip",
"kkxcv",
"kkbcv",
"nnbcv",
"nnbcv",
"mmbMv",
"NNBMv",
"NNVMv",
"NNCMv",
"ZZCMv",
"AACMv",
"SSDFv",
"SSGFv",
"SSGFv",
"HHGFv",
"JJGFv",
"JJKFv",
"JJKFv",
"JJKFv",
"LLKFv",
"LLKFv",
"LLKFv",
"GGPFv",
"GGPFv",
"KKPFv",
"KKPFv",
"KKPFv",
"KKPFv",
"IIUYT",
"RREWQ",
"!!~^/",
"((()_"
};
