/* XPM */
static char *top_right_inactive[] = {
/* columns rows colors chars-per-pixel */
"5 43 94 2 ",
"   c black",
".  c #8F877B",
"X  c #A79F93",
"o  c #958D81",
"O  c #8F877B",
"+  c #A9A194",
"@  c #968E82",
"#  c #90887C",
"$  c #B4ACA0",
"%  c #A39B90",
"&  c #989185",
"*  c #8F877B",
"=  c #CDC6BB",
"-  c #BFB8AD",
";  c #A1998E",
":  c #91897D",
">  c #DBD4CA",
",  c #ADA59A",
"<  c #978F83",
"1  c #8F877B",
"2  c None",
"3  c #BEB6AB",
"4  c #9C9488",
"5  c #90887C",
"6  c #CCC5B9",
"7  c #A39B8F",
"8  c #978F83",
"9  c #D3CCC0",
"0  c #AFA79A",
"q  c #A1998C",
"w  c #BDB5A9",
"e  c #A1998D",
"r  c #C8C1B5",
"t  c #9E968A",
"y  c #CEC7BB",
"u  c #9D9589",
"i  c #CEC7BC",
"p  c #9D9589",
"a  c #E8E2D8",
"s  c #F0EAE0",
"d  c #EDE7DD",
"f  c #ECE6DC",
"g  c #E9E2D8",
"h  c #EBE5DB",
"j  c #E9E3D9",
"k  c #DAD3C8",
"l  c #EAE4DA",
"z  c #E2DBD1",
"x  c #E6E0D6",
"c  c #E7E0D6",
"v  c #CEC7BC",
"b  c #9D9589",
"n  c #E6DFD5",
"m  c #CEC7BB",
"M  c #E5DFD5",
"N  c #E7E1D7",
"B  c #E5DFD4",
"V  c #E4DED4",
"C  c #E4DED3",
"Z  c #E3DDD3",
"A  c #E3DDD2",
"S  c #E5DED4",
"D  c #E2DCD2",
"F  c #CEC6BB",
"G  c #E2DBD0",
"H  c #CDC6BB",
"J  c #E3DDD1",
"K  c #E1DBCF",
"L  c #CDC6BA",
"P  c #E3DCD0",
"I  c #E1DACE",
"U  c #E2DBCF",
"Y  c #E0D9CD",
"T  c #DFD8CC",
"R  c #DED7CB",
"E  c #CDC5B9",
"W  c #DDD6CA",
"Q  c #CCC5B9",
"!  c #DCD5C9",
"~  c #DBD4C8",
"^  c #DAD3C7",
"/  c #D9D2C6",
"(  c #D8D1C5",
")  c #CBC3B7",
"_  c #CEC7BA",
"`  c #C2BBAF",
"'  c #9B9387",
"]  c #BBB3A7",
"[  c #B3AB9F",
"{  c #978F83",
"}  c #ACA497",
"|  c #A79F92",
" . c #948C80",
".. c white",
/* pixels */
"X o O     ",
"+ @ # .   ",
"$ % & *   ",
"= - ; : . ",
"a > , < 1 ",
"s 2 3 4 5 ",
"d a 6 7 8 ",
"f g 9 0 q ",
"h j k w e ",
"h l z r t ",
"l l x y u ",
"l l c i p ",
"j j x v b ",
"a a n m b ",
"a a M m b ",
"N N B m b ",
"N N V m b ",
"x x C m b ",
"x x Z m b ",
"M M A m b ",
"S S D F b ",
"C C G H b ",
"J J K L b ",
"P P I L b ",
"U U I L b ",
"U U Y L b ",
"I I Y L b ",
"I I T L b ",
"Y Y T L b ",
"Y Y R L b ",
"T T R E b ",
"R R W Q b ",
"R R W Q b ",
"W W ! Q b ",
"W W ! Q b ",
"! ! ~ Q b ",
"! ! ~ Q b ",
"~ ~ ^ Q b ",
"~ ~ ^ Q b ",
"/ / ( ) b ",
"m m _ ` ' ",
"] ] ] [ { ",
"} } } |  ."
};
