/* XPM */
static char *top_left_inactive[] = {
/* columns rows colors chars-per-pixel */
"5 43 100 2 ",
"   c black",
".  c #8F877B",
"X  c #8F877B",
"o  c #958D81",
"O  c #A79F93",
"+  c #90887C",
"@  c #968E82",
"#  c #A9A194",
"$  c #8F877B",
"%  c #999185",
"&  c #A49C90",
"*  c #B4ACA0",
"=  c #928A7E",
"-  c #A29B8F",
";  c #C0B9AE",
":  c #CEC7BC",
">  c #8F877B",
",  c #9B9387",
"<  c #B2ABA0",
"1  c #DDD7CD",
"2  c #90887C",
"3  c #A29B8F",
"4  c #CCC5BA",
"5  c None",
"6  c #978F83",
"7  c #AAA297",
"8  c #E1DAD0",
"9  c #A29A8E",
"0  c #B6AFA3",
"q  c #E8E2D8",
"w  c #A59D92",
"e  c #C8C1B6",
"r  c #A49C91",
"t  c #D9D2C8",
"y  c #A39B90",
"u  c #E0DAD0",
"i  c #A39B90",
"p  c #E2DBD2",
"a  c #EAE4DA",
"s  c #F1EBE2",
"d  c #EEE8DE",
"f  c #ECE6DC",
"g  c #EBE4DB",
"h  c #EDE7DD",
"j  c #EBE5DB",
"k  c #EBE5DC",
"l  c #A39B90",
"z  c #E2DBD2",
"x  c #E9E3D9",
"c  c #E1DBD1",
"v  c #EAE4DB",
"b  c #E8E2D8",
"n  c #E7E1D7",
"m  c #E6E0D6",
"M  c #E5DFD5",
"N  c #E1DAD1",
"B  c #E5DED4",
"V  c #E7E0D6",
"C  c #E4DED3",
"Z  c #E1DAD0",
"A  c #E6E0D4",
"S  c #E3DDD1",
"D  c #E6DFD4",
"F  c #E3DCD0",
"G  c #E0DAD0",
"H  c #E5DFD3",
"J  c #E2DBCF",
"K  c #E5DED3",
"L  c #E4DED2",
"P  c #E1DACE",
"I  c #E4DDD2",
"U  c #E0D9CD",
"Y  c #E3DCD1",
"T  c #E0D9CF",
"R  c #DFD8CC",
"E  c #E2DBD0",
"W  c #DED7CB",
"Q  c #E1DACF",
"!  c #DDD6CA",
"~  c #DFD9CF",
"^  c #E0D9CE",
"/  c #DCD5C9",
"(  c #DFD8CD",
")  c #DBD4C8",
"_  c #A29B8F",
"`  c #DDD7CD",
"'  c #D9D2C6",
"]  c #9F988C",
"[  c #D1CBC0",
"{  c #D2CBBF",
"}  c #CEC7BB",
"|  c #9A9286",
" . c #BBB3A8",
".. c #BDB5A9",
"X. c #BBB3A7",
"o. c #958D81",
"O. c #A9A195",
"+. c #ADA598",
"@. c #ACA497",
"#. c white",
/* pixels */
"    X o O ",
"  . + @ # ",
"  $ % & * ",
". = - ; : ",
"> , < 1 a ",
"2 3 4 5 s ",
"6 7 8 d d ",
"9 0 q d f ",
"w e g h j ",
"r t f j j ",
"y u f a a ",
"i p k a a ",
"l z j x x ",
"l c v b b ",
"l c a b b ",
"l c a n n ",
"l c x n n ",
"l c x m m ",
"l c b m m ",
"l c b M M ",
"l N n B B ",
"l N V C C ",
"l Z A S S ",
"l Z D F F ",
"l G H J J ",
"l G K J J ",
"l G L P P ",
"l G I P P ",
"l G S U U ",
"l G Y U U ",
"l T F R R ",
"l T E W W ",
"l T J W W ",
"l T Q ! ! ",
"l T P ! ! ",
"l ~ ^ / / ",
"l ~ U / / ",
"l ~ ( ) ) ",
"l ~ ( ) ) ",
"_ ` ! ' ' ",
"] [ { } } ",
"|  ...X.X.",
"o.O.+.@.@."
};
