/* XPM */
static char *top_left_active[] = {
/* columns rows colors chars-per-pixel */
"5 43 86 1 ",
"  c black",
". c #896947",
"X c #896947",
"o c #896947",
"O c #896947",
"+ c #896946",
"@ c #896946",
"# c #896946",
"$ c #896947",
"% c #8B6945",
"& c #8D6A44",
"* c #8D6A44",
"= c #896946",
"- c #8D6A44",
"; c #956C40",
": c #966C40",
"> c #896947",
", c #8B6945",
"< c #906A42",
"1 c #9D6E3C",
"2 c #896946",
"3 c #8C6944",
"4 c #956B3F",
"5 c None",
"6 c #8B6946",
"7 c #8E6A44",
"8 c #986C3D",
"9 c #8D6A45",
"0 c #916B43",
"q c #9A6C3C",
"w c #8D6A45",
"e c #946B41",
"r c #8C6945",
"t c #966C3F",
"y c #8C6945",
"u c #976C3E",
"i c #8C6945",
"p c #986C3D",
"a c #A06E3B",
"s c #A46F39",
"d c #A36F39",
"f c #A57039",
"g c #A47039",
"h c #9D6D3B",
"j c #A06E3A",
"k c #A16F39",
"l c #A46F38",
"z c #A26F39",
"x c #8C6945",
"c c #986C3D",
"v c #A26E39",
"b c #A26E38",
"n c #A46F37",
"m c #986B3D",
"M c #A46E37",
"N c #A26E37",
"B c #A36E36",
"V c #A26D37",
"C c #A16D37",
"Z c #A36D36",
"A c #A36D35",
"S c #976B3D",
"D c #A16C36",
"F c #A26D35",
"G c #A06C36",
"H c #A16D35",
"J c #A16C35",
"K c #9F6C36",
"L c #A06C35",
"P c #9E6C37",
"I c #8A6945",
"U c #966B3D",
"Y c #9D6C38",
"T c #9E6C36",
"R c #816546",
"E c #936A40",
"W c #9A6C3B",
"Q c #9B6C3A",
"! c #705E4A",
"~ c #8C6944",
"^ c #946C41",
"/ c #956C40",
"( c #63584C",
") c #866747",
"_ c #906C45",
"` c white",
/* pixels */
"  XoO",
" .+@#",
" $%&*",
".=-;:",
">,<1a",
"2345s",
"678df",
"90qdg",
"wehdg",
"rtjdg",
"yukdl",
"ipzll",
"xcvll",
"xcbll",
"xcbnn",
"xcbnn",
"xmbMM",
"xmNBB",
"xmVBB",
"xmCBB",
"xmCZZ",
"xmCAA",
"xSDFF",
"xSGFF",
"xSGFF",
"xSGHH",
"xSGJJ",
"xSKJJ",
"xSKJJ",
"xSKJJ",
"xSKLL",
"xSKLL",
"xSKLL",
"xSPGG",
"xSPGG",
"xSPKK",
"xSPKK",
"xSPKK",
"xSPKK",
"IUYTT",
"REWQQ",
"!~^//",
"()___"
};
